X: 4364
M: 6/8
L: 1/8
K: G
|:\
c2c B2B | (A3 G2)B |\
(A3 G2)B | (A3 G2)D |\
[1 G2G B2B | d3- d2D :|\
[2 A2A ABA | G3- G2 H|:\
c2A B2G |[1 A3- A2 :|\
[2 [d3-D3-] [d2D2]"^D.C."D |]


